dist/svgs/crypto-icons/icons/ok.svg

<?xml version="1.0" encoding="UTF-8" standalone="yes"?>
<svg xmlns="http://www.w3.org/2000/svg" xmlns:xlink="http://www.w3.org/1999/xlink" width="512px" height="512px" viewBox="0 0 384 384" version="1.1">
  <g id="surface1">
    <path style=" stroke:none;fill-rule:nonzero;fill:rgb(0%,0%,0%);fill-opacity:1;" d="M 182.222656 130.835938 C 173.03125 128.261719 129.128906 117.617188 120.441406 115.386719 C 111.152344 113.003906 86.609375 109.132812 80.355469 123.292969 C 74.105469 137.453125 57.554688 176.988281 51.855469 191.410156 C 46.15625 205.835938 55.164062 213.394531 63.621094 215.601562 C 72.082031 217.808594 128.714844 232.703125 138.832031 234.910156 C 148.945312 237.117188 164.574219 235.828125 170.824219 221.855469 C 177.078125 207.878906 193.996094 168.347656 198.960938 154.738281 C 203.925781 141.128906 191.417969 133.40625 182.222656 130.835938 Z M 156.804688 162.738281 C 154.371094 169.414062 145.464844 190 142.398438 196.855469 C 139.332031 203.710938 134.527344 204.121094 129.570312 203.039062 C 124.605469 201.957031 103.222656 196.839844 99.074219 195.757812 C 94.921875 194.671875 90.640625 192.015625 93.433594 184.9375 C 96.230469 177.863281 104.984375 157.40625 108.054688 150.460938 C 111.121094 143.515625 118.246094 144.28125 122.800781 145.453125 C 127.066406 146.542969 147.332031 151.476562 151.84375 152.738281 C 156.347656 154 159.238281 156.0625 156.804688 162.738281 Z M 287.683594 199.695312 L 338.019531 169.425781 L 295.265625 158.597656 L 231.003906 199.695312 L 253.203125 148.253906 L 217.347656 139.152344 L 173.628906 243.136719 L 209.761719 252.515625 L 226.039062 213.210938 C 226.039062 213.210938 257.203125 221.351562 262.441406 222.867188 C 267.683594 224.382812 266.71875 228.796875 265.613281 232.242188 C 264.511719 235.691406 252.925781 262.996094 252.925781 262.996094 L 288.371094 271.828125 C 288.371094 271.828125 302.300781 238.453125 306.023438 228.523438 C 309.746094 218.59375 308.09375 215.007812 304.78125 210.039062 C 301.472656 205.074219 287.683594 199.695312 287.683594 199.695312 Z M 287.683594 199.695312 "/>
    <path style=" stroke:none;fill-rule:nonzero;fill:rgb(0%,0%,0%);fill-opacity:1;" d="M 191.789062 0 C 85.867188 0 0 85.867188 0 191.789062 C 0 297.710938 85.867188 383.578125 191.789062 383.578125 C 297.707031 383.578125 383.574219 297.710938 383.574219 191.789062 C 383.574219 85.867188 297.707031 0 191.789062 0 Z M 191.785156 342.757812 C 108.410156 342.757812 40.824219 275.167969 40.824219 191.789062 C 40.824219 108.410156 108.410156 40.820312 191.785156 40.820312 C 275.164062 40.820312 342.753906 108.410156 342.753906 191.789062 C 342.753906 275.167969 275.164062 342.757812 191.785156 342.757812 Z M 191.785156 342.757812 "/>
  </g>
</svg>

<svg xmlns="http://www.w3.org/2000/svg" viewBox="0 0 384 384"><path d="M182.223 130.836c-9.192-2.574-53.094-13.219-61.782-15.45-9.289-2.382-33.832-6.253-40.086 7.907-6.25 14.16-22.8 53.695-28.5 68.117-5.699 14.426 3.31 21.985 11.766 24.192 8.461 2.207 65.094 17.101 75.211 19.308 10.113 2.207 25.742.918 31.992-13.055 6.254-13.976 23.172-53.507 28.137-67.117 4.965-13.61-7.543-21.332-16.738-23.902zm-25.418 31.902c-2.434 6.676-11.34 27.262-14.407 34.117-3.066 6.856-7.87 7.266-12.828 6.184-4.965-1.082-26.347-6.2-30.496-7.281-4.152-1.086-8.433-3.742-5.64-10.82 2.796-7.075 11.55-27.532 14.62-34.477 3.067-6.945 10.192-6.18 14.747-5.008 4.265 1.09 24.531 6.024 29.043 7.285 4.504 1.262 7.394 3.325 4.96 10zm130.879 36.957l50.336-30.27-42.754-10.827-64.262 41.097 22.2-51.441-35.856-9.102-43.72 103.985 36.134 9.379 16.277-39.305s31.164 8.14 36.402 9.656c5.243 1.516 4.278 5.93 3.172 9.375-1.101 3.45-12.687 30.754-12.687 30.754l35.445 8.832s13.93-33.375 17.652-43.305c3.723-9.93 2.07-13.515-1.242-18.484-3.308-4.965-17.097-10.344-17.097-10.344zm0 0"/><path d="M191.79 0C85.866 0 0 85.867 0 191.79c0 105.92 85.867 191.788 191.79 191.788 105.917 0 191.784-85.867 191.784-191.789C383.574 85.867 297.707 0 191.79 0zm-.005 342.758c-83.375 0-150.96-67.59-150.96-150.969 0-83.379 67.585-150.969 150.96-150.969 83.38 0 150.969 67.59 150.969 150.97 0 83.378-67.59 150.968-150.969 150.968zm0 0"/></svg>
